svg/black/drgn.svg

<svg xmlns="http://www.w3.org/2000/svg" width="32" height="32" viewBox="0 0 32 32">
  <g>
    <path d="M9.40304168,9.95682613 L9.40013174,20.7803956 L12.2177927,20.7803956 L12.1455449,13.4527088 L20.4268802,23.966314 L22.6538134,26.7963803 L22.6364623,25.2234046 L22.6070573,11.0442062 L19.8327458,11.0442062 L19.9048461,18.4297747 L9.57662057,5.30581363 L9.40435103,5.08666385 L9.40328972,9.03424658 L9.400309,9.95335334 L9.40304168,9.95682613 Z M16,32 C7.163444,32 0,24.836556 0,16 C0,7.163444 7.163444,0 16,0 C24.836556,0 32,7.163444 32,16 C32,24.836556 24.836556,32 16,32 Z"/>
    <path d="M9.40304168,9.95682613 L20.4268802,23.966314 L12.1455449,13.4527088 L12.2177927,20.7803956 L9.40013174,20.7803956 L9.40304168,9.95682613 Z M9.40328972,9.03424658 L9.40435103,5.08666385 L9.57662058,5.30581363 L9.41604298,5.10176946 L9.40328972,9.03424658 Z M19.9048461,18.4297747 L19.8327458,11.0442062 L22.6070573,11.0442062 L22.6364623,25.2234046 L22.5992904,21.853575 L19.9048461,18.4297747 Z" opacity=".398"/>
  </g>
</svg>

<svg xmlns="http://www.w3.org/2000/svg" width="32" height="32"><path d="M9.403 9.957L9.4 20.78h2.818l-.072-7.327 8.28 10.513 2.228 2.83-.018-1.573-.029-14.179h-2.774l.072 7.386L9.577 5.306l-.173-.22v3.948l-.004.92.003.003zM16 32C7.163 32 0 24.837 0 16S7.163 0 16 0s16 7.163 16 16-7.163 16-16 16z"/><path d="M9.403 9.957l11.024 14.01-8.281-10.514.072 7.327H9.4l.003-10.823zm0-.923l.001-3.947.173.219-.161-.204-.013 3.932zm10.502 9.396l-.072-7.386h2.774l.03 14.18-.038-3.37-2.694-3.424z" opacity=".398"/></svg>
